Vector/symbolic/apps/org.gnome.Lollypop-symbolic.svg

<svg xmlns="http://www.w3.org/2000/svg" width="16" height="16" version="1.1">
 <path style="opacity:.35;fill:#444444" d="M 5.7949219 0.3125 A 8 8 0 0 0 2.7207031 2.0019531 A 0.50005 0.50005 0 0 1 2.8476562 2.2695312 C 2.9746764 3.1413586 3.681567 4.3764158 4.4628906 5.3398438 A 0.50005 0.50005 0 0 1 4.5019531 5.9121094 C 4.1208045 6.5438593 3.9185756 7.2681683 3.9160156 8.0058594 C 3.9162756 8.0905655 3.9182981 8.1751656 3.9238281 8.2597656 A 0.50005 0.50005 0 0 1 3.1855469 8.7324219 C 2.0709405 8.1240236 0.93435363 7.2157405 0.24414062 6.0820312 A 8 8 0 0 0 0 8 A 8 8 0 0 0 0.1640625 9.5742188 A 0.50005 0.50005 0 0 1 0.45898438 9.5976562 C 1.2770922 9.9233136 2.6958932 9.9308313 3.9199219 9.7363281 A 0.50005 0.50005 0 0 1 4.4355469 9.9882812 C 4.7687986 10.587341 5.3147775 11.011429 5.890625 11.375 C 5.6596808 11.23067 5.5 10.965486 5.5 10.671875 L 5.5 5.328125 C 5.5002359 4.8563257 5.8107785 4.5561031 6.2539062 4.5117188 C 6.4077702 4.4963076 6.5741196 4.5301024 6.7148438 4.6113281 A 0.50005 0.50005 0 0 1 6.7246094 4.6171875 L 11.105469 7.2890625 C 11.627721 7.6072075 11.627924 8.3929212 11.105469 8.7109375 L 6.7246094 11.382812 C 6.4645567 11.541412 6.1333296 11.524121 5.8984375 11.382812 C 6.0138227 11.45522 6.0665976 11.599296 6.1894531 11.660156 A 0.50005 0.50005 0 0 1 6.2265625 12.535156 C 5.140452 13.19801 3.7931763 13.735599 2.4628906 13.763672 A 8 8 0 0 0 5.4472656 15.574219 A 0.50005 0.50005 0 0 1 5.6171875 15.324219 C 6.3058521 14.778453 7.0181918 13.558119 7.4609375 12.404297 A 0.50005 0.50005 0 0 1 7.9316406 12.083984 C 7.9513586 12.084127 7.9705164 12.084127 7.9902344 12.083984 A 0.50005 0.50005 0 0 1 7.9941406 12.083984 C 8.8009696 12.082864 9.5876243 11.841824 10.257812 11.392578 A 0.50005 0.50005 0 0 1 10.509766 11.308594 A 0.50005 0.50005 0 0 1 11.037109 11.796875 C 11.068819 13.071769 10.860481 14.514153 10.216797 15.683594 A 8 8 0 0 0 13.28125 13.996094 A 0.50005 0.50005 0 0 1 13.154297 13.730469 C 13.027018 12.858654 12.317511 11.623718 11.535156 10.660156 A 0.50005 0.50005 0 0 1 11.494141 10.089844 C 11.87107 9.4591836 12.071166 8.7386217 12.072266 8.0039062 C 12.072366 7.9139436 12.070353 7.824146 12.064453 7.734375 A 0.50005 0.50005 0 0 1 12.5625 7.2011719 A 0.50005 0.50005 0 0 1 12.800781 7.2617188 C 13.920206 7.8706034 15.065375 8.7708694 15.757812 9.9121094 A 8 8 0 0 0 16 8 A 8 8 0 0 0 15.833984 6.421875 A 0.50005 0.50005 0 0 1 15.558594 6.40625 C 14.504828 6.0306517 13.156768 6.0855584 12.064453 6.2636719 A 0.50005 0.50005 0 0 1 11.548828 6.0136719 C 11.146628 5.2952533 10.534847 4.7146946 9.796875 4.3496094 A 0.50005 0.50005 0 0 1 9.7578125 3.4765625 C 10.835905 2.8151352 12.174895 2.278276 13.501953 2.2363281 C 13.51376 2.2359531 13.525314 2.2366005 13.537109 2.2363281 A 8 8 0 0 0 10.554688 0.42578125 A 0.50005 0.50005 0 0 1 10.384766 0.67578125 C 9.6935708 1.2235274 8.9781467 2.4502617 8.5351562 3.6074219 A 0.50005 0.50005 0 0 1 8.0644531 3.9277344 C 8.0423221 3.9275559 8.0201789 3.9275559 7.9980469 3.9277344 A 0.50005 0.50005 0 0 1 7.9941406 3.9277344 C 7.1915522 3.9288925 6.4081582 4.1665503 5.7402344 4.6113281 A 0.50005 0.50005 0 0 1 4.9628906 4.2070312 C 4.9308754 2.9309956 5.1415427 1.4856404 5.7949219 0.3125 z M 7.9980469 0.5 C 7.6035912 0.50209449 7.2112992 0.55393349 6.8164062 0.61914062 C 6.3153603 1.4125429 6.0849095 2.4757917 6.0273438 3.5234375 C 6.5726965 3.2855049 7.1178833 3.0475576 7.7148438 3.0117188 C 8.0633141 2.1492148 8.5468223 1.3434383 9.1191406 0.65234375 C 8.746776 0.59384669 8.3796248 0.50189883 8.0019531 0.5 L 7.9980469 0.5 z M 13.533203 3.2363281 C 12.676489 3.2634086 11.77109 3.6859293 10.931641 4.109375 C 11.379401 4.4496919 11.823005 4.7879258 12.136719 5.2578125 C 12.963644 5.1362219 13.892384 5.142205 14.828125 5.2851562 C 14.538179 4.5633717 14.235114 3.8427741 13.736328 3.2421875 C 13.66843 3.2407075 13.601463 3.2341581 13.533203 3.2363281 z M 2.2304688 3.4492188 C 1.7349547 4.083104 1.2502588 4.7304208 1.0292969 5.359375 C 1.4621314 6.1555069 2.2319043 6.8640228 3.078125 7.4296875 C 3.1493783 6.8495348 3.2812749 6.2846469 3.5449219 5.7617188 C 2.9907953 5.0536313 2.5480809 4.2624679 2.2304688 3.4492188 z M 6.5 5.6523438 L 6.5 10.347656 L 10.349609 8 L 6.5 5.6523438 z M 12.917969 8.5644531 C 12.849134 9.1464097 12.715503 9.7131432 12.453125 10.238281 C 13.006447 10.94427 13.448746 11.733494 13.767578 12.544922 C 14.236921 11.945808 14.697652 11.337729 14.966797 10.623047 C 14.533736 9.8276429 13.765602 9.1267066 12.917969 8.5644531 z M 1.1777344 10.724609 C 1.4622117 11.430286 1.7596422 12.132607 2.2441406 12.722656 C 3.1674487 12.745669 4.1854515 12.419413 5.109375 11.951172 C 4.6334815 11.600205 4.1722302 11.236831 3.84375 10.742188 C 2.9521236 10.869008 2.0425858 10.855688 1.1777344 10.724609 z M 9.9726562 12.482422 C 9.4265796 12.722353 8.8795914 12.959156 8.28125 12.996094 C 7.9335458 13.855466 7.4527677 14.658902 6.8828125 15.347656 C 7.2558068 15.406259 7.6235939 15.498212 8.0019531 15.5 C 8.4020873 15.498056 8.7988892 15.444501 9.1933594 15.378906 C 9.6861716 14.5889 9.915032 13.528446 9.9726562 12.482422 z"/>
 <path style="fill:#444444" d="M 8 0 C 7.4944 0.00243 6.9902219 0.05181375 6.4824219 0.15234375 C 5.7046219 1.2511038 5.4285906 2.8282125 5.4628906 4.1953125 C 6.2126906 3.6960125 7.0932406 3.4290344 7.9941406 3.4277344 C 8.0189406 3.4275344 8.0435594 3.4275344 8.0683594 3.4277344 C 8.5306594 2.2201344 9.2449187 0.94039312 10.074219 0.28320312 C 9.3985188 0.098373125 8.7008 0.00316 8 0 z M 2.3535156 2.3417969 C 1.4297156 3.2655969 0.75232 4.3716719 0.4375 5.3886719 C 1.0015 6.5970719 2.2270812 7.6386688 3.4257812 8.2929688 C 3.4195812 8.1980688 3.4163156 8.1029125 3.4160156 8.0078125 C 3.4181156 7.1782125 3.6456188 6.3646969 4.0742188 5.6542969 C 3.2590187 4.6490969 2.5061156 3.3891969 2.3535156 2.3417969 z M 13.517578 2.7363281 C 12.318578 2.7742281 11.040531 3.2759437 10.019531 3.9023438 A 4.5785 4.5785 0 0 1 11.984375 5.7695312 C 13.121375 5.5841313 14.537563 5.5117469 15.726562 5.9355469 A 8 8 0 0 0 14.025391 2.75 L 14.023438 2.75 C 13.857437 2.7356 13.687578 2.7309281 13.517578 2.7363281 z M 6.3046875 5.0097656 C 6.1449609 5.0257641 6.000075 5.178125 6 5.328125 L 6 10.671875 C 6 10.923875 6.2582437 11.081078 6.4648438 10.955078 L 10.845703 8.2832031 C 11.052703 8.1572031 11.052703 7.8428969 10.845703 7.7167969 L 6.4648438 5.0449219 C 6.4133438 5.0151969 6.3579297 5.0044328 6.3046875 5.0097656 z M 12.5625 7.7011719 A 4.5785 4.5785 0 0 1 12.572266 8.0039062 A 4.5785 4.5785 0 0 1 11.923828 10.345703 C 12.739828 11.350703 13.495437 12.610203 13.648438 13.658203 A 8 8 0 0 0 15.558594 10.59375 C 14.992594 9.38075 13.7645 8.3549719 12.5625 7.7011719 z M 0.2734375 10.0625 A 8 8 0 0 0 1.9746094 13.25 A 8 8 0 0 0 1.9765625 13.25 C 3.3046625 13.365 4.8017969 12.818422 5.9667969 12.107422 A 4.5785 4.5785 0 0 1 3.9980469 10.230469 C 2.7205469 10.433469 1.2556975 10.4535 0.2734375 10.0625 z M 10.537109 11.808594 A 4.5785 4.5785 0 0 1 7.9941406 12.583984 A 4.5785 4.5785 0 0 1 7.9277344 12.583984 C 7.4657344 13.787984 6.7542344 15.061797 5.9277344 15.716797 A 8 8 0 0 0 8 16 A 8 8 0 0 0 9.5292969 15.845703 C 10.295997 14.750703 10.571109 13.175594 10.537109 11.808594 z"/>
</svg>

<svg xmlns="http://www.w3.org/2000/svg" width="16" height="16"><path d="M5.795.313A8 8 0 0 0 2.72 2.002a.5.5 0 0 1 .127.268c.127.871.834 2.106 1.615 3.07a.5.5 0 0 1 .039.572 4.082 4.082 0 0 0-.578 2.348.5.5 0 0 1-.738.472C2.07 8.124.934 7.216.244 6.082A8 8 0 0 0 0 8a8 8 0 0 0 .164 1.574.5.5 0 0 1 .295.024c.818.325 2.237.333 3.46.138a.5.5 0 0 1 .517.252c.333.6.879 1.023 1.455 1.387a.837.837 0 0 1-.391-.703V5.328c0-.472.31-.772.754-.816a.78.78 0 0 1 .46.1.5.5 0 0 1 .01.005l4.381 2.672c.523.318.523 1.104 0 1.422l-4.38 2.672a.815.815 0 0 1-.827 0c.116.072.169.216.291.277a.5.5 0 0 1 .038.875c-1.087.663-2.434 1.2-3.764 1.229a8 8 0 0 0 2.984 1.81.5.5 0 0 1 .17-.25c.689-.546 1.401-1.766 1.844-2.92a.5.5 0 0 1 .47-.32h.06a.5.5 0 0 1 .003 0 4.074 4.074 0 0 0 2.264-.691.5.5 0 0 1 .252-.084.5.5 0 0 1 .527.488c.032 1.275-.177 2.717-.82 3.887a8 8 0 0 0 3.064-1.688.5.5 0 0 1-.127-.266c-.127-.871-.836-2.106-1.619-3.07a.5.5 0 0 1-.04-.57 4.078 4.078 0 0 0 .57-2.356.5.5 0 0 1 .498-.533.5.5 0 0 1 .238.06c1.12.61 2.264 1.51 2.957 2.651A8 8 0 0 0 16 8a8 8 0 0 0-.166-1.578.5.5 0 0 1-.275-.016c-1.054-.375-2.402-.32-3.495-.142a.5.5 0 0 1-.515-.25A4.084 4.084 0 0 0 9.797 4.35a.5.5 0 0 1-.04-.873c1.079-.662 2.418-1.199 3.745-1.24h.035A8 8 0 0 0 10.555.425a.5.5 0 0 1-.17.25c-.691.548-1.407 1.774-1.85 2.931a.5.5 0 0 1-.47.32h-.067a.5.5 0 0 1-.004 0 4.075 4.075 0 0 0-2.254.684.5.5 0 0 1-.777-.404c-.032-1.276.179-2.721.832-3.894zM7.998.5a7.504 7.504 0 0 0-1.182.12c-.5.793-.731 1.856-.789 2.903.546-.237 1.09-.475 1.688-.511A9.026 9.026 0 0 1 9.119.652C8.747.594 8.38.502 8.002.5h-.004zm5.535 2.736c-.857.027-1.762.45-2.601.873.447.34.891.679 1.205 1.149a9.208 9.208 0 0 1 2.691.027c-.29-.722-.593-1.442-1.092-2.043-.068-.001-.135-.008-.203-.006zM2.23 3.45c-.495.634-.98 1.281-1.2 1.91.432.797 1.202 1.505 2.048 2.07.071-.58.203-1.144.467-1.667A9.204 9.204 0 0 1 2.23 3.449zM6.5 5.652v4.696L10.35 8 6.5 5.652zm6.418 2.912c-.069.582-.202 1.15-.465 1.674a9.227 9.227 0 0 1 1.315 2.307c.469-.6.93-1.207 1.199-1.922-.433-.795-1.201-1.496-2.049-2.059zm-11.74 2.16c.284.706.582 1.409 1.066 1.999.923.023 1.941-.304 2.865-.772-.476-.35-.937-.714-1.265-1.209a9.229 9.229 0 0 1-2.666-.017zm8.795 1.758c-.546.24-1.093.477-1.692.514a9.02 9.02 0 0 1-1.398 2.352c.373.058.74.15 1.119.152.4-.002.797-.055 1.191-.121.493-.79.722-1.85.78-2.897z" opacity=".3" fill="#555555"/><path d="M8 0a7.98 7.98 0 0 0-1.518.152c-.777 1.1-1.053 2.676-1.02 4.043a4.579 4.579 0 0 1 2.606-.767C8.531 2.22 9.245.94 10.074.283A8 8 0 0 0 8 0zM2.354 2.342C1.43 3.266.752 4.372.437 5.389c.565 1.208 1.79 2.25 2.989 2.904a4.578 4.578 0 0 1 .648-2.639C3.26 4.65 2.506 3.39 2.354 2.342zm11.164.394c-1.2.038-2.477.54-3.498 1.166a4.579 4.579 0 0 1 1.964 1.868c1.137-.186 2.554-.258 3.743.166a8 8 0 0 0-1.702-3.186h-.002a4.293 4.293 0 0 0-.505-.014zM6.305 5.01c-.16.016-.305.168-.305.318v5.344c0 .252.258.41.465.283l4.38-2.672a.336.336 0 0 0 0-.566l-4.38-2.672a.265.265 0 0 0-.16-.035zM12.563 7.7a4.579 4.579 0 0 1 .01.303 4.579 4.579 0 0 1-.65 2.342c.817 1.005 1.572 2.264 1.725 3.312a8 8 0 0 0 1.91-3.064c-.565-1.213-1.793-2.239-2.995-2.893zM.273 10.063a8 8 0 0 0 1.702 3.187 8 8 0 0 0 .002 0c1.328.115 2.825-.432 3.99-1.143a4.579 4.579 0 0 1-1.969-1.877c-1.277.203-2.742.223-3.725-.168zm10.264 1.746a4.579 4.579 0 0 1-2.543.775 4.579 4.579 0 0 1-.066 0c-.462 1.204-1.174 2.478-2 3.133A8 8 0 0 0 8 16a8 8 0 0 0 1.53-.154c.766-1.095 1.041-2.67 1.007-4.037z" fill="#555555"/></svg>
